Newaita-dark/apps/22/com.github.bitseater.weather.svg

<svg height="22pt" viewBox="0 0 22 22" width="22pt" xmlns="http://www.w3.org/2000/svg" xmlns:xlink="http://www.w3.org/1999/xlink"><linearGradient id="a" gradientTransform="matrix(.00262429 0 0 .0429729 10.245063 9.239164)" gradientUnits="userSpaceOnUse" x1="254" x2="254" y1="233.5" y2="254.66667"><stop offset="0" stop-opacity=".27451"/><stop offset="1" stop-opacity="0"/></linearGradient><linearGradient id="b"><stop offset="0" stop-opacity=".313725"/><stop offset=".222222" stop-opacity=".27451"/><stop offset="1" stop-opacity="0"/></linearGradient><radialGradient id="c" cx="450.90894" cy="189.57936" gradientTransform="matrix(.00000012 -.0537161 -.0966889 -.00000007 29.472676 43.721792)" gradientUnits="userSpaceOnUse" r="21.166656" xlink:href="#b"/><radialGradient id="d" cx="450.90894" cy="189.57936" gradientTransform="matrix(-.00000012 .0537161 .0966889 .00000007 -7.642464 -5.175142)" gradientUnits="userSpaceOnUse" r="21.166656" xlink:href="#b"/><radialGradient id="e" cx="450.90894" cy="189.57936" gradientTransform="matrix(-.00000012 -.0537161 .0966889 -.00000007 -7.642464 43.721792)" gradientUnits="userSpaceOnUse" r="21.166656" xlink:href="#b"/><radialGradient id="f" cx="450.90894" cy="189.57936" gradientTransform="matrix(.00000012 .0537161 -.0966889 .00000007 29.472675 -5.175142)" gradientUnits="userSpaceOnUse" r="21.166656" xlink:href="#b"/><linearGradient id="g" gradientUnits="userSpaceOnUse" x1="10.915104" x2="10.915104" y1="19.27332442218" y2="1.99107551259"><stop offset="0" stop-color="#bdbdbd"/><stop offset="1" stop-color="#e0e0e0"/></linearGradient><linearGradient id="h" gradientUnits="userSpaceOnUse" x1="10.915104" x2="10.915104" y1="19.27332442218" y2="1.99107551259"><stop offset="0" stop-color="#5c6bc0"/><stop offset="1" stop-color="#7986cb"/></linearGradient><linearGradient id="i" gradientUnits="userSpaceOnUse" x1="10.915104" x2="10.915104" y1="19.27332442218" y2="1.99107562629"><stop offset="0" stop-color="#f44336"/><stop offset="1" stop-color="#ef5350"/></linearGradient><path d="m10.460938 19.273438h.910156v.910156h-.910156zm0 0" fill="url(#a)"/><path d="m11.371094 19.273438h1.816406v-.910157h-1.816406zm0 0" fill="url(#c)"/><path d="m10.460938 19.273438h-1.820313v.910156h1.820313zm0 0" fill="url(#d)"/><path d="m10.460938 19.273438h-1.820313v-.910157h1.820313zm0 0" fill="url(#e)"/><path d="m11.371094 19.273438h1.816406v.910156h-1.816406zm0 0" fill="url(#f)"/><path d="m10.914062 1.992188c-1.257812 0-2.273437 1.011718-2.273437 2.273437v5.542969c-1.621094.828125-2.726563 2.511718-2.726563 4.460937 0 2.773438 2.230469 5.003907 5 5.003907 2.773438 0 5.003907-2.230469 5.003907-5.003907 0-1.949219-1.105469-3.632812-2.730469-4.460937v-5.542969c0-1.261719-1.011719-2.273437-2.273438-2.273437zm0 0" fill="url(#g)"/><path d="m10.914062 2.902344c-.753906 0-1.363281.605468-1.363281 1.363281v6.144531c-1.59375.558594-2.730469 2.070313-2.730469 3.859375 0 2.269531 1.828126 4.09375 4.09375 4.09375 2.269532 0 4.09375-1.824219 4.09375-4.09375 0-1.789062-1.136718-3.300781-2.726562-3.859375v-6.144531c0-.757813-.609375-1.363281-1.367188-1.363281zm0 0" fill="url(#h)"/><path d="m9.550781 8.816406v1.59375c-1.59375.558594-2.730469 2.070313-2.730469 3.859375 0 2.269531 1.828126 4.09375 4.09375 4.09375 2.269532 0 4.09375-1.824219 4.09375-4.09375 0-1.789062-1.136718-3.300781-2.726562-3.859375v-1.59375c-.683594-.6875-2.046875-.6875-2.730469 0zm0 0" fill="url(#i)"/><path d="m10.914062 1.992188c-1.257812 0-2.273437 1.011718-2.273437 2.273437v.171875c0-1.261719 1.015625-2.277344 2.273437-2.277344 1.261719 0 2.273438 1.015625 2.273438 2.277344v-.171875c0-1.261719-1.011719-2.273437-2.273438-2.273437zm-2.273437 7.816406c-1.621094.828125-2.726563 2.511718-2.726563 4.460937v.085938c.03125-1.914063 1.128907-3.5625 2.726563-4.375zm4.546875 0v.171875c1.601562.8125 2.699219 2.460937 2.730469 4.375 0-.027344 0-.054688 0-.085938 0-1.949219-1.105469-3.632812-2.730469-4.460937zm0 0" fill="#fff" fill-opacity=".960784"/><path d="m5.914062 14.148438v.121093c0 2.773438 2.230469 5.003907 5 5.003907 2.773438 0 5.003907-2.230469 5.003907-5.003907 0-.039062 0-.082031 0-.121093-.070313 2.710937-2.277344 4.871093-5.003907 4.871093-2.726562 0-4.929687-2.160156-5-4.871093zm0 0" fill-opacity=".235294"/><path d="m959.908345 175.215911c-110.626516 0-199.952275 88.982198-199.952275 199.952276v487.512506c-142.577653 72.834849-239.805306 220.909472-239.805306 392.346217 0 243.928033 196.173109 440.101142 439.757581 440.101142 243.928034 0 440.101142-196.173109 440.101142-440.101142 0-171.436745-97.227652-319.511368-240.148866-392.346217v-487.512506c0-110.970078-88.982198-199.952276-199.952276-199.952276zm0 0" fill="none" stroke="#212121" stroke-linecap="round" stroke-linejoin="round" stroke-width="11.338583" transform="scale(.0113699)"/><path d="m6.824219 14.375c0 .035156-.003907.066406-.003907.097656 0 2.265625 1.828126 4.09375 4.09375 4.09375 2.269532 0 4.09375-1.828125 4.09375-4.09375 0-.03125 0-.0625 0-.097656-.050781 2.222656-1.859374 3.996094-4.09375 3.996094-2.234374 0-4.039062-1.773438-4.089843-3.996094zm0 0" fill="#fff7f7"/><path d="m10.914062 2.902344c-.753906 0-1.363281.605468-1.363281 1.363281v.226563c0-.753907.609375-1.363282 1.363281-1.363282.757813 0 1.367188.609375 1.367188 1.363282v-.226563c0-.757813-.609375-1.363281-1.367188-1.363281zm-1.363281 7.507812c-1.59375.558594-2.730469 2.070313-2.730469 3.859375 0 .039063.003907.078125.003907.117188.046875-1.738281 1.167969-3.203125 2.726562-3.75zm2.730469 0v.226563c1.558594.546875 2.679688 2.011719 2.726562 3.75 0-.039063 0-.078125 0-.117188 0-1.789062-1.136718-3.300781-2.726562-3.859375zm0 0" fill-opacity=".235294"/><path d="m959.908345 255.265534c-66.307197 0-119.902653 53.251894-119.902653 119.902653v540.42084c-140.172729 49.129167-240.148866 182.087123-240.148866 339.437883 0 199.608714 160.786365 360.051519 360.051519 360.051519 199.608715 0 360.05152-160.442805 360.05152-360.051519 0-157.35076-99.976138-290.308716-239.805306-339.437883v-540.42084c0-66.650759-53.595455-119.902653-120.246214-119.902653zm0 0" fill="none" stroke="#212121" stroke-linecap="round" stroke-linejoin="round" stroke-width="11.338583" transform="scale(.0113699)"/></svg>

<?xml version="1.0" encoding="UTF-8"?>
<svg xmlns="http://www.w3.org/2000/svg" xmlns:xlink="http://www.w3.org/1999/xlink" width="22pt" height="22pt" viewBox="0 0 22 22" version="1.1">
<defs>
<linearGradient id="linear0" gradientUnits="userSpaceOnUse" x1="254" y1="233.5" x2="254" y2="254.66667" gradientTransform="matrix(0.00262429,0,0,0.0429729,10.245063,9.239164)">
<stop offset="0" style="stop-color:rgb(0%,0%,0%);stop-opacity:0.27451;"/>
<stop offset="1" style="stop-color:rgb(0%,0%,0%);stop-opacity:0;"/>
</linearGradient>
<radialGradient id="radial0" gradientUnits="userSpaceOnUse" cx="450.90894" cy="189.57936" fx="450.90894" fy="189.57936" r="21.166656" gradientTransform="matrix(0.000000119742,-0.0537161,-0.0966889,-0.0000000698078,29.472676,43.721792)">
<stop offset="0" style="stop-color:rgb(0%,0%,0%);stop-opacity:0.313725;"/>
<stop offset="0.222222" style="stop-color:rgb(0%,0%,0%);stop-opacity:0.27451;"/>
<stop offset="1" style="stop-color:rgb(0%,0%,0%);stop-opacity:0;"/>
</radialGradient>
<radialGradient id="radial1" gradientUnits="userSpaceOnUse" cx="450.90894" cy="189.57936" fx="450.90894" fy="189.57936" r="21.166656" gradientTransform="matrix(-0.000000119742,0.0537161,0.0966889,0.0000000698078,-7.642464,-5.175142)">
<stop offset="0" style="stop-color:rgb(0%,0%,0%);stop-opacity:0.313725;"/>
<stop offset="0.222222" style="stop-color:rgb(0%,0%,0%);stop-opacity:0.27451;"/>
<stop offset="1" style="stop-color:rgb(0%,0%,0%);stop-opacity:0;"/>
</radialGradient>
<radialGradient id="radial2" gradientUnits="userSpaceOnUse" cx="450.90894" cy="189.57936" fx="450.90894" fy="189.57936" r="21.166656" gradientTransform="matrix(-0.000000119742,-0.0537161,0.0966889,-0.0000000698078,-7.642464,43.721792)">
<stop offset="0" style="stop-color:rgb(0%,0%,0%);stop-opacity:0.313725;"/>
<stop offset="0.222222" style="stop-color:rgb(0%,0%,0%);stop-opacity:0.27451;"/>
<stop offset="1" style="stop-color:rgb(0%,0%,0%);stop-opacity:0;"/>
</radialGradient>
<radialGradient id="radial3" gradientUnits="userSpaceOnUse" cx="450.90894" cy="189.57936" fx="450.90894" fy="189.57936" r="21.166656" gradientTransform="matrix(0.000000119742,0.0537161,-0.0966889,0.0000000698078,29.472675,-5.175142)">
<stop offset="0" style="stop-color:rgb(0%,0%,0%);stop-opacity:0.313725;"/>
<stop offset="0.222222" style="stop-color:rgb(0%,0%,0%);stop-opacity:0.27451;"/>
<stop offset="1" style="stop-color:rgb(0%,0%,0%);stop-opacity:0;"/>
</radialGradient>
<linearGradient id="linear1" gradientUnits="userSpaceOnUse" x1="960" y1="1695.1182" x2="960" y2="175.11812" gradientTransform="matrix(0.0113699,0,0,0.0113699,0,0)">
<stop offset="0" style="stop-color:rgb(74.117647%,74.117647%,74.117647%);stop-opacity:1;"/>
<stop offset="1" style="stop-color:rgb(87.843137%,87.843137%,87.843137%);stop-opacity:1;"/>
</linearGradient>
<linearGradient id="linear2" gradientUnits="userSpaceOnUse" x1="960" y1="1695.1182" x2="960" y2="175.11812" gradientTransform="matrix(0.0113699,0,0,0.0113699,0,0)">
<stop offset="0" style="stop-color:rgb(36.078431%,41.960784%,75.294118%);stop-opacity:1;"/>
<stop offset="1" style="stop-color:rgb(47.45098%,52.54902%,79.607843%);stop-opacity:1;"/>
</linearGradient>
<linearGradient id="linear3" gradientUnits="userSpaceOnUse" x1="960" y1="1695.1182" x2="960" y2="175.11813" gradientTransform="matrix(0.0113699,0,0,0.0113699,0,0)">
<stop offset="0" style="stop-color:rgb(95.686275%,26.27451%,21.176471%);stop-opacity:1;"/>
<stop offset="1" style="stop-color:rgb(93.72549%,32.54902%,31.372549%);stop-opacity:1;"/>
</linearGradient>
</defs>
<g id="surface1">
<path style=" stroke:none;fill-rule:nonzero;fill:url(#linear0);" d="M 10.460938 19.273438 L 11.371094 19.273438 L 11.371094 20.183594 L 10.460938 20.183594 Z M 10.460938 19.273438 "/>
<path style=" stroke:none;fill-rule:nonzero;fill:url(#radial0);" d="M 11.371094 19.273438 L 13.1875 19.273438 L 13.1875 18.363281 L 11.371094 18.363281 Z M 11.371094 19.273438 "/>
<path style=" stroke:none;fill-rule:nonzero;fill:url(#radial1);" d="M 10.460938 19.273438 L 8.640625 19.273438 L 8.640625 20.183594 L 10.460938 20.183594 Z M 10.460938 19.273438 "/>
<path style=" stroke:none;fill-rule:nonzero;fill:url(#radial2);" d="M 10.460938 19.273438 L 8.640625 19.273438 L 8.640625 18.363281 L 10.460938 18.363281 Z M 10.460938 19.273438 "/>
<path style=" stroke:none;fill-rule:nonzero;fill:url(#radial3);" d="M 11.371094 19.273438 L 13.1875 19.273438 L 13.1875 20.183594 L 11.371094 20.183594 Z M 11.371094 19.273438 "/>
<path style=" stroke:none;fill-rule:nonzero;fill:url(#linear1);" d="M 10.914062 1.992188 C 9.65625 1.992188 8.640625 3.003906 8.640625 4.265625 L 8.640625 9.808594 C 7.019531 10.636719 5.914062 12.320312 5.914062 14.269531 C 5.914062 17.042969 8.144531 19.273438 10.914062 19.273438 C 13.6875 19.273438 15.917969 17.042969 15.917969 14.269531 C 15.917969 12.320312 14.8125 10.636719 13.1875 9.808594 L 13.1875 4.265625 C 13.1875 3.003906 12.175781 1.992188 10.914062 1.992188 Z M 10.914062 1.992188 "/>
<path style=" stroke:none;fill-rule:nonzero;fill:url(#linear2);" d="M 10.914062 2.902344 C 10.160156 2.902344 9.550781 3.507812 9.550781 4.265625 L 9.550781 10.410156 C 7.957031 10.96875 6.820312 12.480469 6.820312 14.269531 C 6.820312 16.539062 8.648438 18.363281 10.914062 18.363281 C 13.183594 18.363281 15.007812 16.539062 15.007812 14.269531 C 15.007812 12.480469 13.871094 10.96875 12.28125 10.410156 L 12.28125 4.265625 C 12.28125 3.507812 11.671875 2.902344 10.914062 2.902344 Z M 10.914062 2.902344 "/>
<path style=" stroke:none;fill-rule:nonzero;fill:url(#linear3);" d="M 9.550781 8.816406 L 9.550781 10.410156 C 7.957031 10.96875 6.820312 12.480469 6.820312 14.269531 C 6.820312 16.539062 8.648438 18.363281 10.914062 18.363281 C 13.183594 18.363281 15.007812 16.539062 15.007812 14.269531 C 15.007812 12.480469 13.871094 10.96875 12.28125 10.410156 L 12.28125 8.816406 C 11.597656 8.128906 10.234375 8.128906 9.550781 8.816406 Z M 9.550781 8.816406 "/>
<path style=" stroke:none;fill-rule:nonzero;fill:rgb(100%,100%,100%);fill-opacity:0.960784;" d="M 10.914062 1.992188 C 9.65625 1.992188 8.640625 3.003906 8.640625 4.265625 L 8.640625 4.4375 C 8.640625 3.175781 9.65625 2.160156 10.914062 2.160156 C 12.175781 2.160156 13.1875 3.175781 13.1875 4.4375 L 13.1875 4.265625 C 13.1875 3.003906 12.175781 1.992188 10.914062 1.992188 Z M 8.640625 9.808594 C 7.019531 10.636719 5.914062 12.320312 5.914062 14.269531 C 5.914062 14.300781 5.914062 14.328125 5.914062 14.355469 C 5.945312 12.441406 7.042969 10.792969 8.640625 9.980469 Z M 13.1875 9.808594 L 13.1875 9.980469 C 14.789062 10.792969 15.886719 12.441406 15.917969 14.355469 C 15.917969 14.328125 15.917969 14.300781 15.917969 14.269531 C 15.917969 12.320312 14.8125 10.636719 13.1875 9.808594 Z M 13.1875 9.808594 "/>
<path style=" stroke:none;fill-rule:nonzero;fill:rgb(0%,0%,0%);fill-opacity:0.235294;" d="M 5.914062 14.148438 C 5.914062 14.1875 5.914062 14.230469 5.914062 14.269531 C 5.914062 17.042969 8.144531 19.273438 10.914062 19.273438 C 13.6875 19.273438 15.917969 17.042969 15.917969 14.269531 C 15.917969 14.230469 15.917969 14.1875 15.917969 14.148438 C 15.847656 16.859375 13.640625 19.019531 10.914062 19.019531 C 8.1875 19.019531 5.984375 16.859375 5.914062 14.148438 Z M 5.914062 14.148438 "/>
<path style="fill:none;stroke-width:11.338583;stroke-linecap:round;stroke-linejoin:round;stroke:rgb(12.941176%,12.941176%,12.941176%);stroke-opacity:1;stroke-miterlimit:4;" d="M 959.908345 175.215911 C 849.281829 175.215911 759.95607 264.198109 759.95607 375.168187 L 759.95607 862.680693 C 617.378417 935.515542 520.150764 1083.590165 520.150764 1255.02691 C 520.150764 1498.954943 716.323873 1695.128052 959.908345 1695.128052 C 1203.836379 1695.128052 1400.009487 1498.954943 1400.009487 1255.02691 C 1400.009487 1083.590165 1302.781835 935.515542 1159.860621 862.680693 L 1159.860621 375.168187 C 1159.860621 264.198109 1070.878423 175.215911 959.908345 175.215911 Z M 959.908345 175.215911 " transform="matrix(0.0113699,0,0,0.0113699,0,0)"/>
<path style=" stroke:none;fill-rule:nonzero;fill:rgb(100%,96.862745%,96.862745%);fill-opacity:1;" d="M 6.824219 14.375 C 6.824219 14.410156 6.820312 14.441406 6.820312 14.472656 C 6.820312 16.738281 8.648438 18.566406 10.914062 18.566406 C 13.183594 18.566406 15.007812 16.738281 15.007812 14.472656 C 15.007812 14.441406 15.007812 14.410156 15.007812 14.375 C 14.957031 16.597656 13.148438 18.371094 10.914062 18.371094 C 8.679688 18.371094 6.875 16.597656 6.824219 14.375 Z M 6.824219 14.375 "/>
<path style=" stroke:none;fill-rule:nonzero;fill:rgb(0%,0%,0%);fill-opacity:0.235294;" d="M 10.914062 2.902344 C 10.160156 2.902344 9.550781 3.507812 9.550781 4.265625 L 9.550781 4.492188 C 9.550781 3.738281 10.160156 3.128906 10.914062 3.128906 C 11.671875 3.128906 12.28125 3.738281 12.28125 4.492188 L 12.28125 4.265625 C 12.28125 3.507812 11.671875 2.902344 10.914062 2.902344 Z M 9.550781 10.410156 C 7.957031 10.96875 6.820312 12.480469 6.820312 14.269531 C 6.820312 14.308594 6.824219 14.347656 6.824219 14.386719 C 6.871094 12.648438 7.992188 11.183594 9.550781 10.636719 Z M 12.28125 10.410156 L 12.28125 10.636719 C 13.839844 11.183594 14.960938 12.648438 15.007812 14.386719 C 15.007812 14.347656 15.007812 14.308594 15.007812 14.269531 C 15.007812 12.480469 13.871094 10.96875 12.28125 10.410156 Z M 12.28125 10.410156 "/>
<path style="fill:none;stroke-width:11.338583;stroke-linecap:round;stroke-linejoin:round;stroke:rgb(12.941176%,12.941176%,12.941176%);stroke-opacity:1;stroke-miterlimit:4;" d="M 959.908345 255.265534 C 893.601148 255.265534 840.005692 308.517428 840.005692 375.168187 L 840.005692 915.589027 C 699.832963 964.718194 599.856826 1097.67615 599.856826 1255.02691 C 599.856826 1454.635624 760.643191 1615.078429 959.908345 1615.078429 C 1159.51706 1615.078429 1319.959865 1454.635624 1319.959865 1255.02691 C 1319.959865 1097.67615 1219.983727 964.718194 1080.154559 915.589027 L 1080.154559 375.168187 C 1080.154559 308.517428 1026.559104 255.265534 959.908345 255.265534 Z M 959.908345 255.265534 " transform="matrix(0.0113699,0,0,0.0113699,0,0)"/>
</g>
</svg>
